web/public/images/3p-logos/netlify.svg

<svg viewBox="0 0 49 48" fill="none" xmlns="http://www.w3.org/2000/svg">
<path d="M34.5916 16.962L34.5748 16.9548C34.5652 16.9512 34.5556 16.9476 34.5472 16.9392C34.5334 16.9244 34.5232 16.9067 34.5174 16.8873C34.5116 16.868 34.5103 16.8475 34.5136 16.8276L35.4412 11.1564L39.7912 15.5076L35.2672 17.4324C35.2546 17.4375 35.2411 17.4399 35.2276 17.4396H35.2096C35.2036 17.436 35.1976 17.4312 35.1856 17.4192C35.0172 17.2317 34.8159 17.0768 34.5916 16.962ZM40.9012 16.6164L45.5524 21.2676C46.5184 22.2348 47.002 22.7172 47.1784 23.2764C47.2048 23.3592 47.2264 23.442 47.2432 23.5272L36.1276 18.8196C36.1216 18.8171 36.1156 18.8147 36.1096 18.8124C36.0652 18.7944 36.0136 18.774 36.0136 18.7284C36.0136 18.6828 36.0664 18.6612 36.1108 18.6432L36.1252 18.6372L40.9012 16.6164ZM47.0536 25.02C46.8136 25.4712 46.3456 25.9392 45.5536 26.7324L40.3096 31.9752L33.5272 30.5628L33.4912 30.5556C33.4312 30.546 33.3676 30.5352 33.3676 30.4812C33.3418 30.2014 33.2587 29.9299 33.1235 29.6836C32.9883 29.4373 32.8038 29.2215 32.5816 29.0496C32.554 29.022 32.5612 28.9788 32.5696 28.9392C32.5696 28.9332 32.5696 28.9272 32.572 28.9224L33.8476 21.0912L33.8524 21.0648C33.8596 21.0048 33.8704 20.9352 33.9244 20.9352C34.1977 20.9012 34.4616 20.8131 34.7006 20.6761C34.9396 20.5391 35.1489 20.3559 35.3164 20.1372C35.3272 20.1252 35.3344 20.112 35.3488 20.1048C35.3872 20.0868 35.4328 20.1048 35.4724 20.1216L47.0524 25.02H47.0536ZM39.1036 33.1812L30.4804 41.8044L31.9564 32.7324L31.9588 32.7204C31.96 32.7084 31.9624 32.6964 31.966 32.6856C31.978 32.6568 32.0092 32.6448 32.0392 32.6328L32.0536 32.6268C32.3768 32.4889 32.6626 32.2763 32.8876 32.0064C32.9164 31.9728 32.9512 31.9404 32.9956 31.9344C33.0071 31.9325 33.0189 31.9325 33.0304 31.9344L39.1024 33.1824L39.1036 33.1812ZM28.6552 43.6296L27.6832 44.6016L16.9372 29.0712C16.9333 29.0655 16.9293 29.0599 16.9252 29.0544C16.9084 29.0316 16.8904 29.0088 16.894 28.9824C16.8952 28.9632 16.9072 28.9464 16.9204 28.932L16.9324 28.9164C16.9648 28.8684 16.9924 28.8204 17.0224 28.7688L17.0464 28.7268L17.05 28.7232C17.0668 28.6944 17.0824 28.6668 17.1112 28.6512C17.1364 28.6392 17.1712 28.644 17.1988 28.65L29.104 31.1052C29.1373 31.1104 29.1687 31.124 29.1952 31.1448C29.2108 31.1604 29.2144 31.1772 29.218 31.1964C29.301 31.5106 29.4556 31.8014 29.6696 32.0459C29.8836 32.2905 30.1512 32.4823 30.4516 32.6064C30.4852 32.6232 30.4708 32.6604 30.4552 32.7C30.4474 32.7174 30.4414 32.7354 30.4372 32.754C30.2872 33.666 29.0008 41.5116 28.6552 43.6296ZM26.6248 45.6588C25.9084 46.368 25.486 46.7436 25.0084 46.8948C24.5375 47.0437 24.0321 47.0437 23.5612 46.8948C23.002 46.7172 22.5184 46.2348 21.5524 45.2676L10.7608 34.476L13.5796 30.1044C13.5928 30.0828 13.606 30.0636 13.6276 30.048C13.6576 30.0264 13.7008 30.036 13.7368 30.048C14.3838 30.2432 15.0784 30.208 15.7024 29.9484C15.7348 29.9364 15.7672 29.928 15.7924 29.9508C15.805 29.9623 15.8163 29.9752 15.826 29.9892L26.6248 45.66V45.6588ZM9.72038 33.4356L7.24478 30.96L12.1336 28.8744C12.1461 28.869 12.1595 28.8661 12.1732 28.866C12.214 28.866 12.238 28.9068 12.2596 28.944C12.3087 29.0196 12.3608 29.0932 12.4156 29.1648L12.4312 29.184C12.4456 29.2044 12.436 29.2248 12.4216 29.244L9.72158 33.4356H9.72038ZM6.14918 29.8644L3.01718 26.7324C2.48438 26.1996 2.09798 25.8132 1.82918 25.4808L11.3524 27.456C11.3643 27.4582 11.3763 27.4602 11.3884 27.462C11.4472 27.4716 11.512 27.4824 11.512 27.5376C11.512 27.5976 11.4412 27.6252 11.3812 27.648L11.3536 27.66L6.14918 29.8644ZM1.28198 23.8704C1.29284 23.6686 1.32912 23.4691 1.38998 23.2764C1.56758 22.7172 2.04998 22.2348 3.01718 21.2676L7.02518 17.2596C8.87058 19.9379 10.721 22.6127 12.5764 25.284C12.6088 25.3272 12.6448 25.3752 12.6076 25.4112C12.4324 25.6044 12.2572 25.8156 12.1336 26.0448C12.1202 26.0743 12.0995 26.0999 12.0736 26.1192C12.058 26.1288 12.0412 26.1252 12.0232 26.1216H12.0208L1.28198 23.8692V23.8704ZM8.09798 16.1868L13.4872 10.7976C13.9936 11.0196 15.8368 11.7984 17.4856 12.4944C18.7336 13.0224 19.8712 13.5024 20.2288 13.6584C20.2648 13.6728 20.2972 13.6872 20.3128 13.7232C20.3224 13.7448 20.3176 13.7724 20.3128 13.7952C20.2275 14.1842 20.2402 14.5883 20.3497 14.9712C20.4593 15.3541 20.6622 15.7038 20.9404 15.9888C20.9764 16.0248 20.9404 16.0764 20.9092 16.1208L20.8924 16.146L15.4204 24.6216C15.406 24.6456 15.3928 24.666 15.3688 24.6816C15.34 24.6996 15.2992 24.6912 15.2656 24.6828C15.0528 24.627 14.834 24.5972 14.614 24.594C14.4172 24.594 14.2036 24.63 13.9876 24.6696H13.9864C13.9624 24.6732 13.9408 24.678 13.9216 24.6636C13.9004 24.6463 13.8821 24.6256 13.8676 24.6024L8.09798 16.1868ZM14.5756 9.7092L21.5524 2.7324C22.5184 1.7664 23.002 1.2828 23.5612 1.1064C24.0321 0.957493 24.5375 0.957493 25.0084 1.1064C25.5676 1.2828 26.0512 1.7664 27.0172 2.7324L28.5292 4.2444L23.5672 11.9292C23.5549 11.9516 23.5382 11.9712 23.518 11.9868C23.488 12.0072 23.446 11.9988 23.41 11.9868C23.0188 11.8681 22.6045 11.8465 22.2031 11.9238C21.8016 12.0012 21.4251 12.1752 21.106 12.4308C21.0736 12.4644 21.0256 12.4452 20.9848 12.4272C20.3368 12.1452 15.2968 10.0152 14.5756 9.7092ZM29.5828 5.298L34.1644 9.8796L33.0604 16.7172V16.7352C33.0594 16.7508 33.0562 16.7661 33.0508 16.7808C33.0388 16.8048 33.0148 16.8096 32.9908 16.8168C32.7547 16.8883 32.5324 16.999 32.3332 17.1444C32.3246 17.1505 32.3166 17.1573 32.3092 17.1648C32.296 17.1792 32.2828 17.1924 32.2612 17.1948C32.2436 17.1953 32.2261 17.1925 32.2096 17.1864L25.228 14.22L25.2148 14.214C25.1704 14.196 25.1176 14.1744 25.1176 14.1288C25.0765 13.7397 24.9495 13.3647 24.7456 13.0308C24.712 12.9756 24.6748 12.918 24.7036 12.8616L29.5828 5.298ZM24.8644 15.6252L31.4092 18.3972C31.4452 18.414 31.4848 18.4296 31.5004 18.4668C31.5066 18.4892 31.5066 18.5128 31.5004 18.5352C31.4812 18.6312 31.4644 18.7404 31.4644 18.8508V19.0344C31.4644 19.08 31.4176 19.0992 31.3744 19.1172L31.3612 19.122C30.3244 19.5648 16.8052 25.3296 16.7848 25.3296C16.7644 25.3296 16.7428 25.3296 16.7224 25.3092C16.6864 25.2732 16.7224 25.2228 16.7548 25.1772C16.7605 25.1693 16.7661 25.1613 16.7716 25.1532L22.15 16.8252L22.1596 16.8108C22.1908 16.7604 22.2268 16.704 22.2844 16.704L22.3384 16.7124C22.4608 16.7292 22.5688 16.7448 22.678 16.7448C23.494 16.7448 24.25 16.3476 24.706 15.6684C24.7168 15.6503 24.7306 15.634 24.7468 15.6204C24.7792 15.5964 24.8272 15.6084 24.8644 15.6252ZM17.3692 26.6472L32.1052 20.3628C32.1052 20.3628 32.1268 20.3628 32.1472 20.3832C32.2276 20.4636 32.296 20.5176 32.362 20.568L32.3944 20.5884C32.4244 20.6052 32.4544 20.6244 32.4568 20.6556C32.4568 20.6676 32.4568 20.6748 32.4544 20.6856L31.192 28.44L31.1872 28.4712C31.1788 28.5312 31.1704 28.5996 31.114 28.5996C30.7774 28.6223 30.4515 28.7268 30.1644 28.9039C29.8773 29.081 29.6377 29.3254 29.4664 29.616L29.4604 29.6256C29.4436 29.6532 29.428 29.6796 29.4004 29.694C29.3752 29.706 29.3428 29.7012 29.3164 29.6952L17.5648 27.2712C17.5528 27.2688 17.3824 26.6484 17.3692 26.6472Z" fill="url(#paint0_radial_110_2282)"/>
<defs>
<radialGradient id="paint0_radial_110_2282" cx="0" cy="0" r="1" gradientUnits="userSpaceOnUse" gradientTransform="translate(-0.261132 23.3514) rotate(90) scale(45.9611 53.0639)">
<stop stop-color="#20C6B7"/>
<stop offset="1" stop-color="#4D9ABF"/>
</radialGradient>
</defs>
</svg>

<svg fill="none" viewBox="0 0 49 48" xmlns="http://www.w3.org/2000/svg"><radialGradient id="a" cx="0" cy="0" gradientTransform="matrix(0 45.9611 -53.0639 0 -.261 23.351)" gradientUnits="userSpaceOnUse" r="1"><stop offset="0" stop-color="#20c6b7"/><stop offset="1" stop-color="#4d9abf"/></radialGradient><path d="m34.592 16.962-.017-.007c-.01-.004-.02-.007-.028-.016a.131.131 0 0 1-.033-.111l.927-5.672 4.35 4.352-4.524 1.924a.1.1 0 0 1-.04.008h-.017a.125.125 0 0 1-.024-.02 2.06 2.06 0 0 0-.594-.458zm6.31-.346 4.65 4.652c.966.967 1.45 1.45 1.626 2.008.027.083.048.166.065.251L36.128 18.82a.675.675 0 0 0-.018-.008c-.045-.018-.096-.038-.096-.084s.052-.067.097-.085l.014-.006zm6.152 8.404c-.24.451-.708.92-1.5 1.712l-5.244 5.243-6.783-1.412-.036-.007c-.06-.01-.123-.02-.123-.075a2.048 2.048 0 0 0-.786-1.431c-.028-.028-.02-.071-.012-.11 0-.007 0-.013.002-.018l1.276-7.83.004-.027c.008-.06.018-.13.072-.13a2.076 2.076 0 0 0 1.392-.798c.011-.012.018-.025.033-.032.038-.018.084 0 .123.017l11.58 4.898zm-7.95 8.161-8.624 8.623 1.476-9.072.003-.012a.163.163 0 0 1 .007-.034c.012-.03.043-.041.073-.053l.015-.006a2.22 2.22 0 0 0 .834-.62c.028-.034.063-.067.108-.073a.107.107 0 0 1 .034 0l6.072 1.248zM28.655 43.63l-.972.972-10.746-15.53a.51.51 0 0 0-.012-.018c-.017-.022-.035-.045-.031-.072.001-.019.013-.036.026-.05l.012-.016c.033-.048.06-.096.09-.147l.024-.042.004-.004c.017-.029.032-.056.061-.072.025-.012.06-.007.088-.001l11.905 2.455a.197.197 0 0 1 .091.04c.016.015.02.032.023.051a2.107 2.107 0 0 0 1.234 1.41c.033.017.019.054.003.094a.285.285 0 0 0-.018.054c-.15.912-1.436 8.758-1.782 10.876zm-2.03 2.029c-.717.709-1.139 1.085-1.617 1.236a2.4 2.4 0 0 1-1.447 0c-.559-.178-1.043-.66-2.009-1.627L10.761 34.476l2.819-4.372a.18.18 0 0 1 .048-.056c.03-.022.073-.012.109 0a2.92 2.92 0 0 0 1.965-.1c.033-.012.065-.02.09.003a.227.227 0 0 1 .034.038L26.625 45.66zM9.72 33.436 7.245 30.96l4.889-2.086a.102.102 0 0 1 .04-.008c.04 0 .064.04.086.078.049.076.1.15.156.22l.015.02c.015.02.005.04-.01.06l-2.7 4.192zm-3.57-3.572-3.133-3.132c-.533-.532-.919-.919-1.188-1.251l9.523 1.975.036.006c.06.01.124.02.124.076 0 .06-.07.087-.13.11l-.028.012zM1.281 23.87a2.4 2.4 0 0 1 .108-.594c.178-.559.66-1.041 1.627-2.008l4.008-4.008a2599.93 2599.93 0 0 0 5.551 8.024c.033.043.069.091.032.127a3.33 3.33 0 0 0-.474.634.192.192 0 0 1-.06.074c-.016.01-.033.006-.05.003h-.003L1.282 23.869zm6.816-7.683 5.39-5.39c.506.223 2.349 1.001 3.998 1.697 1.248.528 2.385 1.008 2.743 1.164.036.015.068.03.084.065.01.022.005.05 0 .072a2.404 2.404 0 0 0 .627 2.194c.036.036 0 .087-.03.132l-.018.025-5.472 8.476a.166.166 0 0 1-.051.06c-.029.018-.07.01-.103 0a2.725 2.725 0 0 0-.652-.088c-.197 0-.41.036-.626.076h-.002c-.024.003-.045.008-.064-.006a.25.25 0 0 1-.054-.062zm6.478-6.478 6.976-6.977c.966-.966 1.45-1.45 2.01-1.626a2.4 2.4 0 0 1 1.446 0c.56.177 1.043.66 2.01 1.626l1.511 1.512-4.962 7.685a.185.185 0 0 1-.049.058c-.03.02-.072.012-.108 0a2.517 2.517 0 0 0-2.304.444c-.032.033-.08.014-.121-.004-.648-.282-5.688-2.412-6.41-2.718zm15.007-4.411 4.581 4.582-1.104 6.837v.018a.162.162 0 0 1-.01.046c-.011.024-.035.029-.06.036a2.194 2.194 0 0 0-.68.348c-.014.014-.027.027-.049.03a.137.137 0 0 1-.051-.009l-6.982-2.966-.013-.006c-.045-.018-.097-.04-.097-.085a2.638 2.638 0 0 0-.372-1.098c-.034-.055-.071-.113-.042-.17zm-4.719 10.327 6.545 2.772c.036.017.076.033.091.07a.128.128 0 0 1 0 .068c-.019.096-.036.205-.036.316v.183c0 .046-.046.065-.09.083l-.013.005c-1.037.443-14.556 6.208-14.576 6.208s-.042 0-.063-.02c-.036-.037 0-.087.033-.133l.017-.024 5.378-8.328.01-.014c.03-.05.067-.107.124-.107l.054.008c.123.017.23.033.34.033a2.43 2.43 0 0 0 2.028-1.077.19.19 0 0 1 .04-.048c.033-.024.081-.012.118.005zM17.37 26.647l14.736-6.284s.022 0 .042.02c.08.08.149.135.215.185l.032.02c.03.017.06.036.063.068 0 .012 0 .019-.003.03l-1.262 7.754-.005.031c-.008.06-.017.129-.073.129a2.075 2.075 0 0 0-1.648 1.016l-.006.01c-.016.027-.032.054-.06.068-.025.012-.057.007-.084.001l-11.751-2.424c-.012-.002-.183-.623-.196-.624z" fill="url(#a)"/></svg>
